assets/svgs/shopping-grey/ShoppingGrey6.svg

<svg xmlns="http://www.w3.org/2000/svg" data-name="Layer 3" viewBox="0 0 128 128"><path d="M98.123 61.823a11.91 11.91 0 00-7.587-22.251l-2.9-9.332a1.592 1.592 0 00-1.992-1.047l-62 19.262a1.569 1.569 0 00-1.078 1.691 1.5 1.5 0 00-.041.2v12.531a1.591 1.591 0 001.591 1.591 9.349 9.349 0 010 18.7 1.591 1.591 0 00-1.591 1.591v12.529a1.591 1.591 0 001.591 1.591h68.825a1.591 1.591 0 001.591-1.591V85.651a12.524 12.524 0 003.591-23.829zM25.71 51.937h65.64v1.723H25.71zm62.228-10a1.592 1.592 0 001.992 1.047 8.728 8.728 0 015.179 16.671 1.573 1.573 0 00-.577.331v-9.64a1.591 1.591 0 00-1.591-1.591H33.4L85.07 32.7zM25.71 95.7v-1.992h65.64V95.7zm67.231-13.131a1.591 1.591 0 00-1.591 1.591v6.365H25.71v-4.277a12.533 12.533 0 000-24.862v-4.543h65.64v5.437a1.591 1.591 0 001.591 1.591 9.349 9.349 0 110 18.7z"/><path d="M59.657 66.127a6.232 6.232 0 10-6.231 6.231 6.239 6.239 0 006.231-6.231zm-9.281 0a3.049 3.049 0 113.05 3.049 3.053 3.053 0 01-3.051-3.049zM71.26 75.674a6.1 6.1 0 106.1 6.1 6.106 6.106 0 00-6.1-6.1zm0 9.016a2.917 2.917 0 112.917-2.917 2.92 2.92 0 01-2.917 2.917zM71.794 57.58a1.592 1.592 0 00-2.168.6L53.448 86.826a1.591 1.591 0 102.771 1.565L72.4 59.748a1.591 1.591 0 00-.606-2.168z"/></svg>

<svg id="Layer_3" data-name="Layer 3" xmlns="http://www.w3.org/2000/svg" viewBox="0 0 128 128"><title>Artboard 102</title><path d="M98.123,61.823a11.91,11.91,0,0,0-7.587-22.251l-2.9-9.332a1.592,1.592,0,0,0-1.992-1.047l-62,19.262a1.569,1.569,0,0,0-1.078,1.691,1.5,1.5,0,0,0-.041.2V62.877a1.591,1.591,0,0,0,1.591,1.591,9.349,9.349,0,0,1,0,18.7,1.591,1.591,0,0,0-1.591,1.591V97.288a1.591,1.591,0,0,0,1.591,1.591H92.941a1.591,1.591,0,0,0,1.591-1.591V85.651a12.524,12.524,0,0,0,3.591-23.829ZM25.71,51.937H91.35v1.723H25.71Zm62.228-10a1.592,1.592,0,0,0,1.992,1.047,8.728,8.728,0,0,1,5.179,16.671,1.573,1.573,0,0,0-.577.331v-9.64a1.591,1.591,0,0,0-1.591-1.591H33.4L85.07,32.7ZM25.71,95.7V93.708H91.35V95.7ZM92.941,82.569A1.591,1.591,0,0,0,91.35,84.16v6.365H25.71V86.248a12.533,12.533,0,0,0,0-24.862V56.843H91.35V62.28a1.591,1.591,0,0,0,1.591,1.591,9.349,9.349,0,1,1,0,18.7Z"/><path d="M59.657,66.127a6.232,6.232,0,1,0-6.231,6.231A6.239,6.239,0,0,0,59.657,66.127Zm-9.281,0a3.049,3.049,0,1,1,3.05,3.049A3.053,3.053,0,0,1,50.375,66.127Z"/><path d="M71.26,75.674a6.1,6.1,0,1,0,6.1,6.1A6.106,6.106,0,0,0,71.26,75.674Zm0,9.016a2.917,2.917,0,1,1,2.917-2.917A2.92,2.92,0,0,1,71.26,84.69Z"/><path d="M71.794,57.58a1.592,1.592,0,0,0-2.168.6L53.448,86.826a1.591,1.591,0,1,0,2.771,1.565L72.4,59.748A1.591,1.591,0,0,0,71.794,57.58Z"/></svg>
